app/images/icons/medal.svg

<svg xmlns="http://www.w3.org/2000/svg" preserveAspectRatio="xMidYMid" width="60.32" height="63.94"><circle cx="43.445" cy="46.445" r="16.875" fill="#a3bbc8"/><path d="M47.521 22.442a3.45 3.45 0 01.001 3.575l-1.314 2.174c-.173.287-.24.627-.188.958l.391 2.513a3.433 3.433 0 01-1.359 3.309l-2.036 1.495c-.27.198-.461.486-.539.813l-.593 2.473a3.403 3.403 0 01-2.506 2.529l-.984.241 6.927 15.6c.147.331.107.717-.107 1.009a.993.993 0 01-.922.404l-5.572-.672-3.209 4.645a.996.996 0 01-.912.427.999.999 0 01-.818-.591L26.701 47.4l-.929.572a3.371 3.371 0 01-3.541 0l-.896-.552-7.071 15.924a1.002 1.002 0 01-.912.596.994.994 0 01-.818-.432l-3.21-4.645-5.571.672a.994.994 0 01-.923-.404 1.016 1.016 0 01-.107-1.009l6.924-15.591-1.023-.25a3.405 3.405 0 01-2.505-2.53l-.593-2.473a1.42 1.42 0 00-.539-.813l-2.036-1.494a3.437 3.437 0 01-1.359-3.311l.392-2.511a1.429 1.429 0 00-.188-.958L.482 26.017a3.448 3.448 0 010-3.575l1.314-2.175c.173-.286.24-.626.188-.958l-.391-2.512a3.432 3.432 0 011.359-3.31l2.036-1.495c.269-.197.46-.486.539-.812l.593-2.474a3.403 3.403 0 012.505-2.529l2.45-.599c.324-.079.61-.272.806-.543l1.48-2.056a3.372 3.372 0 013.279-1.371l2.488.395c.329.052.666-.016.949-.19L22.231.487a3.36 3.36 0 013.541 0l2.155 1.326c.283.175.621.242.949.19l2.488-.395a3.372 3.372 0 013.279 1.372l1.481 2.055c.196.272.482.465.805.544l2.45.599a3.403 3.403 0 012.506 2.529l.593 2.474c.078.326.269.614.538.812l2.036 1.495a3.432 3.432 0 011.359 3.31l-.391 2.511c-.052.332.015.672.188.958l1.313 2.175zM34.882 60.895l2.543-3.681a.994.994 0 01.938-.425l4.415.533-6.319-14.229c-.128.09-.243.201-.336.331l-1.481 2.055c-.132.184-.281.35-.442.501l3.333 7.506a1.012 1.012 0 01-.502 1.332 1 1 0 01-1.32-.508L32.4 46.854a3.402 3.402 0 01-1.037-.003l-2.487-.395a1.395 1.395 0 00-.408-.004l6.414 14.443zM5.267 57.322l4.415-.533a.994.994 0 01.937.425l2.544 3.681 6.411-14.437a1.368 1.368 0 00-.447-.003l-2.488.395a3.37 3.37 0 01-.997.01l-3.309 7.45a.998.998 0 01-.912.596 1.01 1.01 0 01-.91-1.42l3.32-7.478a3.423 3.423 0 01-.471-.53l-1.481-2.055a1.405 1.405 0 00-.304-.307L5.267 57.322zm40.549-33.831l-1.313-2.174a3.467 3.467 0 01-.456-2.321l.392-2.511a1.419 1.419 0 00-.561-1.367l-2.036-1.495a3.433 3.433 0 01-1.305-1.969l-.593-2.473a1.404 1.404 0 00-1.034-1.044l-2.45-.599a3.403 3.403 0 01-1.951-1.317l-1.481-2.056a1.392 1.392 0 00-1.353-.566l-2.489.395a3.374 3.374 0 01-2.299-.46l-2.155-1.326a1.384 1.384 0 00-1.461 0l-2.154 1.326a3.382 3.382 0 01-2.3.46l-2.487-.395a1.391 1.391 0 00-1.354.566L13.495 6.22a3.404 3.404 0 01-1.95 1.318l-2.45.598c-.514.126-.91.525-1.035 1.044l-.593 2.473a3.44 3.44 0 01-1.304 1.969l-2.037 1.495a1.42 1.42 0 00-.561 1.367l.392 2.512a3.463 3.463 0 01-.456 2.32l-1.314 2.175a1.423 1.423 0 000 1.476l1.314 2.174c.419.694.58 1.519.455 2.321l-.391 2.512a1.416 1.416 0 00.561 1.366l2.035 1.495a3.436 3.436 0 011.305 1.969l.593 2.473c.125.519.521.919 1.035 1.044l2.45.599a3.41 3.41 0 011.95 1.317l1.481 2.056c.312.432.83.649 1.354.566l2.488-.395a3.377 3.377 0 012.299.46l2.155 1.326c.45.278 1.011.278 1.462 0l2.154-1.326a3.38 3.38 0 012.299-.46l2.488.395a1.388 1.388 0 001.353-.566l1.481-2.055a3.4 3.4 0 011.951-1.317l2.45-.599c.513-.125.91-.525 1.034-1.044l.593-2.473c.19-.791.653-1.49 1.305-1.969l2.036-1.495c.429-.315.644-.838.561-1.366l-.391-2.512a3.466 3.466 0 01.456-2.321l1.313-2.175a1.423 1.423 0 000-1.476zM36.71 37.085a17.94 17.94 0 01-12.771 5.33c-3.887 0-7.787-1.26-11.047-3.82a1.015 1.015 0 01-.174-1.415.992.992 0 011.401-.176c6.363 4.999 15.468 4.421 21.179-1.344a16.277 16.277 0 002.982-18.75 1.01 1.01 0 01.441-1.353.993.993 0 011.341.445 18.302 18.302 0 01-3.352 21.083zm.025-23.247a.995.995 0 01-.749-.34 16.525 16.525 0 00-1.42-1.433 1.014 1.014 0 01-.086-1.423.991.991 0 011.409-.088 18.287 18.287 0 011.594 1.609 1.015 1.015 0 01-.087 1.423.991.991 0 01-.661.252zm-1.05 7.255c.22.684.032 1.412-.491 1.9l-4.441 4.146 1.179 5.991a1.812 1.812 0 01-.71 1.828 1.77 1.77 0 01-1.941.116l-5.279-2.983-5.28 2.983a1.792 1.792 0 01-.883.235c-.371 0-.74-.118-1.058-.351a1.812 1.812 0 01-.71-1.828l1.179-5.991-4.441-4.146a1.815 1.815 0 01-.491-1.9 1.792 1.792 0 011.503-1.246l6.008-.719 2.534-5.546a1.787 1.787 0 011.639-1.058c.712 0 1.34.406 1.638 1.058l2.534 5.546 6.008.719a1.792 1.792 0 011.503 1.246zm-8.301-.03a.997.997 0 01-.789-.578l-2.593-5.675-2.593 5.675a1 1 0 01-.79.578l-6.148.736 4.545 4.243c.255.239.37.593.302.937l-1.207 6.13 5.403-3.053a.994.994 0 01.975 0l5.403 3.053-1.207-6.13a1.018 1.018 0 01.302-.937l4.545-4.243-6.148-.736zm3.805-11.312c-6.198-3.161-13.663-1.952-18.577 3.008-5.711 5.765-6.283 14.957-1.331 21.38.339.439.26 1.073-.175 1.415a.992.992 0 01-1.401-.177C4.136 28.153 4.778 17.816 11.2 11.334c5.525-5.578 13.92-6.937 20.889-3.382.493.251.69.857.441 1.354a.993.993 0 01-1.341.445z" fill="#243f4d" fill-rule="evenodd"/></svg>

<svg xmlns="http://www.w3.org/2000/svg" xmlns:xlink="http://www.w3.org/1999/xlink" preserveAspectRatio="xMidYMid" width="60.32" height="63.94" viewBox="0 0 60.32 63.94">
  <defs>
    <style>
      .cls-1 {
        fill: #a3bbc8;
      }

      .cls-2 {
        fill: #243f4d;
        fill-rule: evenodd;
      }
    </style>
  </defs>
  <g>
    <circle cx="43.445" cy="46.445" r="16.875" class="cls-1"/>
    <path d="M47.521,22.442 C48.187,23.544 48.187,24.914 47.522,26.017 L46.208,28.191 C46.035,28.478 45.968,28.818 46.020,29.149 L46.411,31.662 C46.610,32.941 46.090,34.209 45.052,34.971 L43.016,36.466 C42.746,36.664 42.555,36.952 42.477,37.279 L41.884,39.752 C41.583,41.008 40.622,41.978 39.378,42.281 L38.394,42.522 L45.321,58.122 C45.468,58.453 45.428,58.839 45.214,59.131 C45.001,59.424 44.649,59.578 44.292,59.535 L38.720,58.863 L35.511,63.508 C35.323,63.780 35.017,63.940 34.692,63.940 C34.661,63.940 34.630,63.938 34.599,63.935 C34.240,63.901 33.928,63.675 33.781,63.344 L26.701,47.400 L25.772,47.972 C25.226,48.308 24.614,48.475 24.002,48.475 C23.389,48.475 22.777,48.308 22.231,47.972 L21.335,47.420 L14.264,63.344 C14.116,63.675 13.804,63.901 13.446,63.935 C13.415,63.938 13.383,63.940 13.352,63.940 C13.028,63.940 12.721,63.780 12.534,63.508 L9.324,58.863 L3.753,59.535 C3.396,59.578 3.043,59.424 2.830,59.131 C2.617,58.839 2.576,58.453 2.723,58.122 L9.647,42.531 L8.624,42.281 C7.380,41.977 6.420,41.007 6.119,39.751 L5.526,37.278 C5.448,36.951 5.256,36.663 4.987,36.465 L2.951,34.971 C1.914,34.209 1.393,32.940 1.592,31.660 L1.984,29.149 C2.036,28.818 1.969,28.478 1.796,28.191 L0.482,26.017 C-0.184,24.914 -0.184,23.544 0.482,22.442 L1.796,20.267 C1.969,19.981 2.036,19.641 1.984,19.309 L1.593,16.797 C1.393,15.517 1.914,14.249 2.952,13.487 L4.988,11.992 C5.257,11.795 5.448,11.506 5.527,11.180 L6.120,8.706 C6.421,7.450 7.381,6.481 8.625,6.177 L11.075,5.578 C11.399,5.499 11.685,5.306 11.881,5.035 L13.361,2.979 C14.116,1.932 15.373,1.406 16.640,1.608 L19.128,2.003 C19.457,2.055 19.794,1.987 20.077,1.813 L22.231,0.487 C23.323,-0.185 24.680,-0.186 25.772,0.487 L27.927,1.813 C28.210,1.988 28.548,2.055 28.876,2.003 L31.364,1.608 C32.632,1.406 33.888,1.933 34.643,2.980 L36.124,5.035 C36.320,5.307 36.606,5.500 36.929,5.579 L39.379,6.178 C40.624,6.482 41.584,7.451 41.885,8.707 L42.478,11.181 C42.556,11.507 42.747,11.795 43.016,11.993 L45.052,13.488 C46.090,14.250 46.611,15.518 46.411,16.798 L46.020,19.309 C45.968,19.641 46.035,19.981 46.208,20.267 L47.521,22.442 ZM34.882,60.895 L37.425,57.214 C37.636,56.908 37.996,56.745 38.363,56.789 L42.778,57.322 L36.459,43.093 C36.331,43.183 36.216,43.294 36.123,43.424 L34.642,45.479 C34.510,45.663 34.361,45.829 34.200,45.980 L37.533,53.486 C37.759,53.993 37.534,54.590 37.031,54.818 C36.898,54.878 36.760,54.906 36.623,54.906 C36.242,54.906 35.878,54.684 35.711,54.310 L32.400,46.854 C32.062,46.905 31.713,46.906 31.363,46.851 L28.876,46.456 C28.740,46.434 28.603,46.434 28.468,46.452 L34.882,60.895 ZM5.267,57.322 L9.682,56.789 C10.048,56.745 10.408,56.908 10.619,57.214 L13.163,60.895 L19.574,46.458 C19.427,46.433 19.276,46.431 19.127,46.455 L16.639,46.850 C16.302,46.904 15.967,46.905 15.642,46.860 L12.333,54.310 C12.167,54.684 11.803,54.906 11.421,54.906 C11.285,54.906 11.146,54.877 11.014,54.817 C10.510,54.590 10.285,53.993 10.511,53.486 L13.831,46.008 C13.659,45.851 13.501,45.674 13.360,45.478 L11.879,43.423 C11.794,43.304 11.690,43.202 11.575,43.116 L5.267,57.322 ZM45.816,23.491 L44.503,21.317 C44.084,20.623 43.922,19.798 44.047,18.996 L44.439,16.485 C44.521,15.956 44.306,15.432 43.878,15.118 L41.842,13.623 C41.190,13.145 40.726,12.445 40.537,11.654 L39.944,9.181 C39.820,8.662 39.423,8.262 38.910,8.137 L36.460,7.538 C35.676,7.347 34.984,6.879 34.509,6.221 L33.028,4.165 C32.717,3.733 32.198,3.516 31.675,3.599 L29.186,3.994 C28.391,4.121 27.574,3.957 26.887,3.534 L24.732,2.208 C24.282,1.930 23.722,1.930 23.271,2.208 L21.117,3.534 C20.429,3.957 19.613,4.120 18.817,3.994 L16.330,3.599 C15.806,3.515 15.288,3.733 14.976,4.165 L13.495,6.220 C13.021,6.878 12.329,7.346 11.545,7.538 L9.095,8.136 C8.581,8.262 8.185,8.661 8.060,9.180 L7.467,11.653 C7.278,12.444 6.814,13.143 6.163,13.622 L4.126,15.117 C3.698,15.432 3.483,15.955 3.565,16.484 L3.957,18.996 C4.082,19.798 3.920,20.623 3.501,21.316 L2.187,23.491 C1.912,23.946 1.912,24.512 2.187,24.967 L3.501,27.141 C3.920,27.835 4.081,28.660 3.956,29.462 L3.565,31.974 C3.483,32.502 3.697,33.026 4.126,33.340 L6.161,34.835 C6.813,35.314 7.277,36.013 7.466,36.804 L8.059,39.277 C8.184,39.796 8.580,40.196 9.094,40.321 L11.544,40.920 C12.327,41.112 13.020,41.580 13.494,42.237 L14.975,44.293 C15.287,44.725 15.805,44.942 16.329,44.859 L18.817,44.464 C18.992,44.436 19.169,44.422 19.345,44.422 C19.966,44.422 20.581,44.594 21.116,44.924 L23.271,46.250 C23.721,46.528 24.282,46.528 24.733,46.250 L26.887,44.924 C27.574,44.501 28.391,44.338 29.186,44.464 L31.674,44.859 C32.197,44.943 32.716,44.726 33.027,44.293 L34.508,42.238 C34.982,41.580 35.675,41.112 36.459,40.921 L38.909,40.322 C39.422,40.197 39.819,39.797 39.943,39.278 L40.536,36.805 C40.726,36.014 41.189,35.315 41.841,34.836 L43.877,33.341 C44.306,33.026 44.521,32.503 44.438,31.975 L44.047,29.463 C43.922,28.660 44.084,27.836 44.503,27.142 L45.816,24.967 C46.091,24.512 46.091,23.946 45.816,23.491 ZM36.710,37.085 C33.214,40.615 28.585,42.415 23.939,42.415 C20.052,42.415 16.152,41.155 12.892,38.595 C12.457,38.252 12.379,37.619 12.718,37.180 C13.056,36.741 13.683,36.662 14.119,37.004 C20.482,42.003 29.587,41.425 35.298,35.660 C40.211,30.701 41.409,23.166 38.280,16.910 C38.031,16.413 38.229,15.807 38.721,15.557 C39.213,15.306 39.814,15.505 40.062,16.002 C43.581,23.036 42.234,31.509 36.710,37.085 ZM36.735,13.838 C36.459,13.838 36.184,13.723 35.986,13.498 C35.766,13.246 35.534,12.998 35.298,12.759 C35.062,12.521 34.816,12.287 34.566,12.065 C34.153,11.696 34.114,11.059 34.480,10.642 C34.845,10.225 35.476,10.185 35.889,10.554 C36.169,10.804 36.445,11.066 36.710,11.334 C36.975,11.602 37.235,11.880 37.483,12.163 C37.848,12.580 37.809,13.217 37.396,13.586 C37.206,13.755 36.970,13.838 36.735,13.838 ZM35.685,21.093 C35.905,21.777 35.717,22.505 35.194,22.993 L30.753,27.139 L31.932,33.130 C32.070,33.835 31.799,34.535 31.222,34.958 C30.646,35.381 29.902,35.425 29.281,35.074 L24.002,32.091 L18.722,35.074 C18.444,35.231 18.141,35.309 17.839,35.309 C17.468,35.309 17.099,35.191 16.781,34.958 C16.204,34.535 15.933,33.835 16.071,33.130 L17.250,27.139 L12.809,22.993 C12.286,22.505 12.098,21.777 12.318,21.093 C12.538,20.410 13.114,19.932 13.821,19.847 L19.829,19.128 L22.363,13.582 C22.662,12.930 23.289,12.524 24.002,12.524 C24.714,12.524 25.342,12.930 25.640,13.582 L28.174,19.128 L34.182,19.847 C34.889,19.932 35.465,20.410 35.685,21.093 ZM27.384,21.063 C27.039,21.022 26.740,20.803 26.595,20.485 L24.002,14.810 L21.409,20.485 C21.263,20.803 20.964,21.022 20.619,21.063 L14.471,21.799 L19.016,26.042 C19.271,26.281 19.386,26.635 19.318,26.979 L18.111,33.109 L23.514,30.056 C23.665,29.971 23.833,29.928 24.002,29.928 C24.170,29.928 24.338,29.971 24.489,30.056 L29.892,33.109 L28.685,26.979 C28.618,26.636 28.732,26.281 28.987,26.042 L33.532,21.799 L27.384,21.063 ZM31.189,9.751 C24.991,6.590 17.526,7.799 12.612,12.759 C6.901,18.524 6.329,27.716 11.281,34.139 C11.620,34.578 11.541,35.212 11.106,35.554 C10.924,35.697 10.708,35.766 10.494,35.766 C10.196,35.766 9.902,35.633 9.705,35.377 C4.136,28.153 4.778,17.816 11.200,11.334 C16.725,5.756 25.120,4.397 32.089,7.952 C32.582,8.203 32.779,8.809 32.530,9.306 C32.282,9.803 31.681,10.002 31.189,9.751 Z" class="cls-2"/>
  </g>
</svg>
